X:1
T:Precious Lord
M:4/4
L:1/8
K:C
 G,A,| C6 CC| E6 EE| D- C4- CC A,| G,6| G, G,| C6 CC| E6 DE| G6 AG|\
 A- G4- G| AG| E6 EE| D- C4- CC A,| C6 G,A,| C6| EC| E4- EC DD| C8|\
(2A,3.99999962500005/5.99999925000009A,3.99999962500005/5.99999925000009G,3.99999962500005/5.99999925000009 F,3.99999962500005/5.99999925000009 G,4|\
